X: 1
T: Barrowburn
R: reel
M: 4/4
L: 1/8
K: Dmaj
FE|"D"~D2DE FAAd|"G"~B2BA BddB|"D"~A2AB "(Bm)"d2de|"(Em)"fedB "A"AFEF|
   "D"~D2DE FAAd|"G"~B2BA Bdde|"D"f2af "A"e2fe|dBAB "D"d2:|
cd|"A"~e2ef ecBA|"D"~f2fg fdBA|"G(Em)"~g2ga gecA|"D(F#m)"a2ag f2ef|
   "G"g2ga gecA|"D"a2ag f2ef|"G"g2ag "D"f2ed|"G"dB"A"AB "D"d2:|

